X:15403
T:Si quieres que te quiera
C:Trad.
Z:Asturias, canciones
M:2/4
L:1/8
Q:1/4=180
K:C
E|GG GG|G G2 G|A2 BA|G3 E|G2 AG|F3 D|G2 GF|E2 z E|
|GG GG|G G2 G|A2 BA|G3 E|G2 AG|F3 D|G2 [GA][BF]|[c2E2] z2|
